packages/calcite-ui-icons/icons/image-navigation-24.svg

<?xml version="1.0" encoding="UTF-8"?><svg id="icons" xmlns="http://www.w3.org/2000/svg" viewBox="0 0 24 24"><defs><style>.cls-1{fill:none;}</style></defs><path d="M13.65137,5l.43359.4541c.15314.16028.25311.34839.32153.5459h7.59351v11.06696l-2.71387-2.71387c-.17694-.17694-.45703-.19684-.65723-.04669l-2.17749,1.63306c-.18646.13983-.44452.13318-.6236-.01599l-3.6084-3.00696c-.19977-.1665-.49353-.15314-.67737.0307l-3.6275,3.62744c-.19342.19342-.48016.1413-.67743-.04822-.1969-.18921-.50983-.18677-.70374.00714l-2.53339,2.53339v-6.36774l-.93555-.85547c-.02539-.02325-.04102-.05249-.06445-.07709v10.23334h20V5h-9.34863ZM22,21H4v-.51904l2.94727-2.94727c.21191.10645.44238.16309.67676.16309.375,0,.72949-.14746.99707-.41504l3.30664-3.30664,3.25977,2.71631c.26855.22461.61035.34863.96191.34863.32715,0,.63867-.104.90137-.30029l1.83301-1.37451,3.11621,3.11591v2.51886ZM18,9.5c0-.82843-.67157-1.5-1.5-1.5s-1.5.67157-1.5,1.5.67157,1.5,1.5,1.5,1.5-.67157,1.5-1.5ZM16,9.5c0-.27588.22461-.5.5-.5s.5.22412.5.5-.22461.5-.5.5-.5-.22412-.5-.5ZM1.77686,7l1.21735,1.27441-.72266.69141L.00006,6.58887l2.26367-2.47559.72931.67383-1.09979,1.21289h4.10675V1.81354l-1.23187,1.1767-.69141-.72266L6.45367,0l2.47559,2.25977-.67383.73828-1.25543-1.14764v4.1496h4.14966l-1.14178-1.19531.72266-.69141,2.26947,2.37695-2.26166,2.47559-.73828-.67383,1.18109-1.29199h-4.18115v4.18829l1.23785-1.18243.69141.72266-2.37695,2.27148-2.47559-2.26367.67383-.72931,1.24945,1.13324v-4.14026H1.77686Z"/><rect class="cls-1" width="24" height="24"/></svg>

<svg xmlns="http://www.w3.org/2000/svg" viewBox="0 0 24 24"><path d="M13.651 5l.434.454c.153.16.253.348.321.546H22v11.067l-2.714-2.714a.503.503 0 0 0-.657-.047L16.45 15.94a.503.503 0 0 1-.623-.016l-3.609-3.006a.503.503 0 0 0-.677.03l-3.627 3.628c-.194.193-.48.141-.678-.049a.503.503 0 0 0-.704.008L4 19.067v-6.368l-.936-.855c-.025-.023-.04-.053-.064-.077V22h20V5h-9.349zM22 21H4v-.519l2.947-2.947c.212.106.443.163.677.163.375 0 .73-.148.997-.415l3.307-3.307 3.26 2.716a1.502 1.502 0 0 0 1.863.049l1.833-1.375L22 18.481V21zM18 9.5a1.5 1.5 0 1 0-3 0 1.5 1.5 0 0 0 3 0zm-2 0a.5.5 0 1 1 1.001.001A.5.5 0 0 1 16 9.5zM1.777 7l1.217 1.274-.722.692L0 6.589l2.264-2.476.729.674L1.893 6H6V1.814L4.768 2.99l-.691-.722L6.454 0l2.475 2.26-.674.738L7 1.85V6h4.15l-1.142-1.195.723-.692L13 6.49l-2.262 2.476L10 8.292 11.181 7H7v4.188l1.238-1.182.691.723L6.552 13l-2.475-2.264.674-.729L6 11.14V7H1.777z"/><path fill="none" d="M0 0h24v24H0z"/></svg>
